Newaita-dark/.DP/32/battery-full-charged.svg

<?xml version="1.0" encoding="UTF-8"?>
<svg xmlns="http://www.w3.org/2000/svg" xmlns:xlink="http://www.w3.org/1999/xlink" width="32pt" height="32pt" viewBox="0 0 32 32" version="1.1">
<g id="surface1">
<path style=" stroke:none;fill-rule:nonzero;fill:rgb(74.117649%,74.117649%,74.117649%);fill-opacity:1;" d="M 3.96875 6.203125 C 2.871094 6.203125 1.984375 7.089844 1.984375 8.1875 L 1.984375 24.066406 C 1.984375 25.164062 2.871094 26.050781 3.96875 26.050781 L 16.367188 26.050781 C 16.125 25.425781 15.96875 24.757812 15.90625 24.066406 L 5.292969 24.066406 C 4.558594 24.066406 3.96875 23.476562 3.96875 22.742188 L 3.96875 9.511719 C 3.96875 8.777344 4.558594 8.1875 5.292969 8.1875 L 25.136719 8.1875 C 25.871094 8.1875 26.460938 8.777344 26.460938 9.511719 L 26.460938 16.914062 C 27.972656 17.683594 29.175781 18.964844 29.847656 20.53125 C 30.199219 20.296875 30.429688 19.894531 30.429688 19.433594 L 30.429688 12.820312 C 30.429688 12.085938 29.839844 11.496094 29.105469 11.496094 L 28.445312 11.496094 L 28.445312 8.1875 C 28.445312 7.089844 27.558594 6.203125 26.460938 6.203125 Z M 3.96875 6.203125 "/>
<path style=" stroke:none;fill-rule:nonzero;fill:rgb(74.117649%,74.117649%,74.117649%);fill-opacity:1;" d="M 6.613281 10.171875 L 7.9375 10.171875 C 8.304688 10.171875 8.601562 10.4375 8.601562 10.769531 L 8.601562 21.484375 C 8.601562 21.8125 8.304688 22.082031 7.9375 22.082031 L 6.613281 22.082031 C 6.25 22.082031 5.953125 21.8125 5.953125 21.484375 L 5.953125 10.769531 C 5.953125 10.4375 6.25 10.171875 6.613281 10.171875 Z M 6.613281 10.171875 "/>
<path style=" stroke:none;fill-rule:nonzero;fill:rgb(74.117649%,74.117649%,74.117649%);fill-opacity:1;" d="M 11.90625 10.171875 L 13.230469 10.171875 C 13.597656 10.171875 13.890625 10.4375 13.890625 10.769531 L 13.890625 21.484375 C 13.890625 21.8125 13.597656 22.082031 13.230469 22.082031 L 11.90625 22.082031 C 11.542969 22.082031 11.246094 21.8125 11.246094 21.484375 L 11.246094 10.769531 C 11.246094 10.4375 11.542969 10.171875 11.90625 10.171875 Z M 11.90625 10.171875 "/>
<path style=" stroke:none;fill-rule:nonzero;fill:rgb(74.117649%,74.117649%,74.117649%);fill-opacity:1;" d="M 17.199219 10.171875 C 16.832031 10.171875 16.539062 10.4375 16.539062 10.769531 L 16.539062 20.359375 C 17.113281 19.101562 18.035156 18.042969 19.183594 17.296875 L 19.183594 10.769531 C 19.183594 10.4375 18.890625 10.171875 18.523438 10.171875 Z M 17.199219 10.171875 "/>
<path style=" stroke:none;fill-rule:nonzero;fill:rgb(74.117649%,74.117649%,74.117649%);fill-opacity:1;" d="M 22.492188 10.171875 C 22.125 10.171875 21.832031 10.4375 21.832031 10.769531 L 21.832031 16.246094 C 22.257812 16.167969 22.703125 16.125 23.152344 16.125 C 23.605469 16.125 24.046875 16.167969 24.476562 16.246094 L 24.476562 10.769531 C 24.476562 10.4375 24.179688 10.171875 23.816406 10.171875 Z M 22.492188 10.171875 "/>
<path style=" stroke:none;fill-rule:evenodd;fill:rgb(100%,43.921569%,26.274511%);fill-opacity:1;" d="M 26.128906 18.109375 L 18.851562 24.066406 L 22.160156 24.066406 L 20.175781 28.695312 L 27.453125 22.742188 L 24.144531 22.742188 Z M 26.128906 18.109375 "/>
</g>
</svg>

<svg xmlns="http://www.w3.org/2000/svg" width="32pt" height="32pt" viewBox="0 0 32 32"><path d="M3.969 6.203a1.982 1.982 0 0 0-1.985 1.984v15.88c0 1.097.887 1.984 1.985 1.984h12.398a7.314 7.314 0 0 1-.46-1.985H5.292a1.32 1.32 0 0 1-1.324-1.324V9.512c0-.735.59-1.325 1.324-1.325h19.844c.734 0 1.324.59 1.324 1.325v7.402a7.287 7.287 0 0 1 3.387 3.617c.351-.234.582-.636.582-1.097V12.82a1.32 1.32 0 0 0-1.325-1.324h-.66V8.187a1.982 1.982 0 0 0-1.984-1.984zm0 0" fill="#bdbdbd"/><path d="M6.613 10.172h1.324c.368 0 .665.265.665.598v10.714c0 .328-.297.598-.665.598H6.614c-.363 0-.66-.27-.66-.598V10.77c0-.332.297-.598.66-.598zm0 0M11.906 10.172h1.324c.368 0 .66.265.66.598v10.714c0 .328-.292.598-.66.598h-1.324c-.363 0-.66-.27-.66-.598V10.77c0-.332.297-.598.66-.598zm0 0M17.2 10.172c-.368 0-.66.265-.66.598v9.59a7.24 7.24 0 0 1 2.644-3.063V10.77c0-.332-.293-.598-.66-.598zm0 0M22.492 10.172c-.367 0-.66.265-.66.598v5.476a7.344 7.344 0 0 1 2.645 0V10.77c0-.332-.297-.598-.66-.598zm0 0" fill="#bdbdbd"/><path d="M26.129 18.11l-7.277 5.956h3.308l-1.984 4.63 7.277-5.954h-3.308zm0 0" fill-rule="evenodd" fill="#ff7043"/></svg>
